!!!COM: Beethoven, Ludwig van
!!!CDT: 1770///-1827///
!!!OTL: String Quartet No. 2 in G Major, Op. 18, No. 2
!!!OPS: Op. 18
!!!ONM: No. 2
!!!OMV: Mvmt. 3
!!!OMD: Scherzo Allegro
**kern	**dynam	**kern	**dynam	**kern	**dynam	**kern	**dynam
*staff4	*staff4	*staff3	*staff3	*staff2	*staff2	*staff1	*staff1
*Icello	*Icello	*Iviola	*Iviola	*Ivioln	*Ivioln	*Ivioln	*Ivioln
*>[A,A,B,B,C,C,D,D1,D,D2,E,A,B,C]	*>[A,A,B,B,C,C,D,D1,D,D2,E,A,B,C]	*>[A,A,B,B,C,C,D,D1,D,D2,E,A,B,C]	*>[A,A,B,B,C,C,D,D1,D,D2,E,A,B,C]	*>[A,A,B,B,C,C,D,D1,D,D2,E,A,B,C]	*>[A,A,B,B,C,C,D,D1,D,D2,E,A,B,C]	*>[A,A,B,B,C,C,D,D1,D,D2,E,A,B,C]	*>[A,A,B,B,C,C,D,D1,D,D2,E,A,B,C]
*>norep[A,B,C,D,D2,E,A,B]	*>norep[A,B,C,D,D2,E,A,B]	*>norep[A,B,C,D,D2,E,A,B]	*>norep[A,B,C,D,D2,E,A,B]	*>norep[A,B,C,D,D2,E,A,B]	*>norep[A,B,C,D,D2,E,A,B]	*>norep[A,B,C,D,D2,E,A,B]	*>norep[A,B,C,D,D2,E,A,B]
*>A	*>A	*>A	*>A	*>A	*>A	*>A	*>A
*clefF4	*clefF4	*clefC3	*clefC3	*clefG2	*clefG2	*clefG2	*clefG2
*k[f#]	*k[f#]	*k[f#]	*k[f#]	*k[f#]	*k[f#]	*k[f#]	*k[f#]
*G:	*G:	*G:	*G:	*G:	*G:	*G:	*G:
*M3/4	*M3/4	*M3/4	*M3/4	*M3/4	*M3/4	*M3/4	*M3/4
*MM152	*MM152	*MM152	*MM152	*MM152	*MM152	*MM152	*MM152
4r	.	4r	.	4r	.	(8dd'\L	p
.	.	.	.	.	.	16dd\L	.
.	.	.	.	.	.	16b\JJ	.
=1	=1	=1	=1	=1	=1	=1	=1
4r	.	4r	.	8r	.	4gg\)	.
.	.	.	.	(16B/LL	.	.	.
.	.	.	.	16d/JJ	.	.	.
4GG'/	p	4B'/	p	8g'/)	.	4r	.
.	.	.	.	8r	.	.	.
4r	.	4r	.	4r	.	(8dd'\L	.
.	.	.	.	.	.	16dd\L	.
.	.	.	.	.	.	16b\JJ	.
=2	=2	=2	=2	=2	=2	=2	=2
4r	.	4r	.	8r	.	4g/)	.
.	.	.	.	(16d/LL	.	.	.
.	.	.	.	16g/JJ	.	.	.
4G'\	.	4d'\	.	8b'/)	.	4r	.
.	.	.	.	8r	.	.	.
4r	.	4r	.	4r	.	8b'/L	.
.	.	.	.	.	.	(16b/L	.
.	.	.	.	.	.	16g/JJ)	.
=3	=3	=3	=3	=3	=3	=3	=3
4r	.	4r	.	4r	.	8f#/L	.
.	.	.	.	.	.	(16cc#/L	.
.	.	.	.	.	.	16dd/JJ)	.
4A'\	.	4d'\	.	4cc'\	.	8f#'/L	.
.	.	.	.	.	.	(16cc#/L	.
.	.	.	.	.	.	16dd/JJ)	.
4G'\	.	4d'\	.	4b'\	.	(8g'/L	.
.	.	.	.	.	.	16cc#/L	.
.	.	.	.	.	.	16dd/JJ)	.
=4	=4	=4	=4	=4	=4	=4	=4
4F#'\	.	4d'\	.	4a'/	.	4a/	.
4D'\	.	4d'\	.	4f#'/	.	4r	.
4r	.	4r	.	4r	.	8aa'\L	.
.	.	.	.	.	.	(16aa\L	.
.	.	.	.	.	.	16ff#\JJ	.
=5	=5	=5	=5	=5	=5	=5	=5
4r	.	4r	.	8r	.	4ccc\)	.
.	.	.	.	(16A/LL	.	.	.
.	.	.	.	16c/JJ	.	.	.
4D'\	.	4c'\	.	8f#'/)	.	4r	.
.	.	.	.	8r	.	.	.
4r	.	4r	.	4r	.	8aa'\L	.
.	.	.	.	.	.	(16aa\L	.
.	.	.	.	.	.	16ff#\JJ	.
=6	=6	=6	=6	=6	=6	=6	=6
4r	.	4r	.	8r	.	4cc\)	.
.	.	.	.	(16d/LL	.	.	.
.	.	.	.	16f#/JJ	.	.	.
4F#'\	.	4d'\	.	8a'/)	.	8r	.
.	.	.	.	8r	.	(16dd\LL	.
.	.	.	.	.	.	16cc\JJ)	.
4G'\	.	4d'\	.	4g'/	.	8b'\L	.
.	.	.	.	.	.	(16ff#\L	.
.	.	.	.	.	.	16gg\JJ)	.
=7	=7	=7	=7	=7	=7	=7	=7
4r	.	4r	.	8r	.	4a/	.
.	.	.	.	(16A/LL	.	.	.
.	.	.	.	16c/JJ	.	.	.
4C'/	.	4c'/	.	8e'/)	.	8r	.
.	.	.	.	8r	.	(16dd#\LL	.
.	.	.	.	.	.	16ee\JJ)	.
4D'/	.	4A'/	.	4c'/	.	8f#'\L	.
.	.	.	.	.	.	(16cc#\L	.
.	.	.	.	.	.	16ddn\JJ)	.
=8	=8	=8	=8	=8	=8	=8	=8
4G'\	.	4G'/	.	4B'/	.	4g'/	.
4GG'/	.	4r	.	4r	.	4r	.
=:|!|:	=:|!|:	=:|!|:	=:|!|:	=:|!|:	=:|!|:	=:|!|:	=:|!|:
*>B	*>B	*>B	*>B	*>B	*>B	*>B	*>B
4r	.	4r	.	4r	.	4b\	.
=9	=9	=9	=9	=9	=9	=9	=9
4.BB/	.	4.d#\	.	4.f#/	.	4.b\ 4.bb\	.
8B\L	.	8d#\L	.	8f#/L	.	8b\L	.
8B\	.	8d#\	.	8f#/	.	8a#\	.
8B\J	.	8d#\J	.	8f#/J	.	8b\J	.
=10	=10	=10	=10	=10	=10	=10	=10
8B\L	.	8e\L	.	8f#/L	.	8cc#'\L	.
8B\	.	8e\	.	8f#/	.	8dd#'\	.
8B\	.	8e\	.	8f#/	.	8ee'\	.
8B\	.	8e\	.	8f#/	.	8ff#'\	.
8B\	.	8e\	.	8f#/	.	8gg#'\	.
8B\J	.	8e\J	.	8f#/J	.	8aa#'\J	.
=11	=11	=11	=11	=11	=11	=11	=11
4B\	.	4d#\	.	4f#/	.	4bb\	.
4B\	.	4d#\	.	4f#/	.	4bb\	.
4B\	.	4f#\	.	4a#/	.	(8ccc#\L	.
.	.	.	.	.	.	16bb\L	.
.	.	.	.	.	.	16ccc#\JJ)	.
=12	=12	=12	=12	=12	=12	=12	=12
4B\	.	4f#\	.	4b/	.	(4ddd#\	.
4r	.	4r	.	4r	.	4bb\)	.
4r	.	4r	.	4r	.	4b\	.
=13	=13	=13	=13	=13	=13	=13	=13
2GG/	f	2G/	f	2G/ 2fn/	.	2b\ 2bb\	f
8d'\L	.	8fn'\L	.	8g'/L	.	8b'\L	.
8c'\J	.	8e'\J	.	8a'/J	.	8ccn'\J	.
=14	=14	=14	=14	=14	=14	=14	=14
8B'\L	.	8dn'/L	.	8b'\L	.	8dd'\L	.
8A'\	.	8c'/	.	8cc'\	.	8ee'\	.
8G'\	.	8B'/	.	8dd'\	.	8ffn'\	.
8Fn'\	.	8A'/	.	8ee'\	.	8gg'\	.
8E'\	.	8G'/	.	8ffn'\	.	8aa'\	.
8D'\J	.	8G'/J	.	8fn'\J	.	8bb'\J	.
=15	=15	=15	=15	=15	=15	=15	=15
8C/L	.	8G/L	.	8e/L	.	8ccc\L	.
8BB/	.	8A/	.	8f#/	.	8ddd#\	.
8C/	.	8G/	.	8e/	.	8eee\	.
8BB/	.	8A/	.	8f#/	.	8ddd#\	.
8C/	.	8G/	.	8e/	.	8eee\	.
8AA/J	.	8e/J	.	8cc/J	.	8ccc\J	.
=16	=16	=16	=16	=16	=16	=16	=16
(4D/	.	(4g\	.	(4b/	.	(4bb\	.
8DD/)	.	8f#\)	.	8a/)	.	8aa\)	.
8r	.	8r	.	8r	.	8r	.
4r	.	4r	.	8dd'\L	p	8dddn'\L	p
.	.	.	.	(16dd\L	.	(16ddd\L	.
.	.	.	.	16b\JJ	.	16bb\JJ	.
=17	=17	=17	=17	=17	=17	=17	=17
8r	.	8r	.	4gg\)	.	4ggg\)	.
(16BB/LL	p	(16B/LL	p	.	.	.	.
16D/JJ	.	16d/JJ	.	.	.	.	.
8G'\)	.	8g'\)	.	4r	.	4r	.
8r	.	8r	.	.	.	.	.
4r	.	4r	.	8dd'\L	.	(8ddd'\L	.
.	.	.	.	(16dd\L	.	16ddd\L	.
.	.	.	.	16b\JJ	.	16bb\JJ	.
=18	=18	=18	=18	=18	=18	=18	=18
8r	.	8r	.	4g/)	.	4gg\)	.
(16D/LL	.	(16d/LL	.	.	.	.	.
16BB/JJ	.	16B/JJ	.	.	.	.	.
8GG'/)	.	8G'/)	.	4r	.	4r	.
8r	.	8r	.	.	.	.	.
4r	.	4r	.	4r	.	8bb'\L	.
.	.	.	.	.	.	(16bb\L	.
.	.	.	.	.	.	16gg\JJ	.
=19	=19	=19	=19	=19	=19	=19	=19
4r	.	4r	.	4r	.	8ff#'\L)	.
.	.	.	.	.	.	(16ccc#\L	.
.	.	.	.	.	.	16ddd\JJ)	.
4AA'/	.	4D'/	.	4cc\	.	8ff#'\L	.
.	.	.	.	.	.	(16ccc#\L	.
.	.	.	.	.	.	16ddd\JJ)	.
4GG'/	.	4D'/	.	4b'\	.	8gg'\L	.
.	.	.	.	.	.	(16ccc#\L	.
.	.	.	.	.	.	16ddd\JJ)	.
=20	=20	=20	=20	=20	=20	=20	=20
4FF#'/	.	4D'/	.	4a'/	.	4aa\	.
4DD'/	.	4D'/	.	4f#'/	.	4r	.
(8A'\L	.	8a'\L	.	4r	.	4r	.
16A\L	.	(16a\L	.	.	.	.	.
16F#\JJ	.	16f#\JJ	.	.	.	.	.
=21	=21	=21	=21	=21	=21	=21	=21
4c'\)	.	4cc'\)	.	8r	.	8r	.
.	.	.	.	(16f#/LL	.	(16ff#\LL	.
.	.	.	.	16a/JJ	.	16aa\JJ	.
4r	.	4r	.	8cc\)	.	8ccc'\)	.
.	.	.	.	8r	.	8r	.
8A'\L	.	8a'\L	.	4r	.	4r	.
16A\L	.	(16a\L	.	.	.	.	.
(16F#\JJ	.	16f#\JJ	.	.	.	.	.
=22	=22	=22	=22	=22	=22	=22	=22
4D#'\)	.	4d#\)	.	8r	.	8r	.
.	.	.	.	(16a/LL	.	(16aa\LL	.
.	.	.	.	16f#/JJ	.	16ff#\JJ	.
4r	.	4r	.	8d#'/)	.	8dd#'\)	.
.	.	.	.	8r	.	8r	.
(8F#'\L	.	(8f#'\L	.	4r	.	4r	.
16F#\L	.	16f#\L	.	.	.	.	.
16D#\JJ	.	16d#\JJ	.	.	.	.	.
=23	=23	=23	=23	=23	=23	=23	=23
8BB'\L	.	8B'\L)	.	8r	.	8r	.
(16F#\L)	.	(16f#\L	.	(16f#/LL	.	(16ff#\LL	.
16D#\JJ)	.	16d#\JJ)	.	16d#/JJ)	.	16dd#\JJ)	.
8BB'\L	.	8B'\L	.	8B'/L	.	8b'/L	.
(16F#\L	.	(16f#\L	.	(16f#/L	.	(16f#/L	.
16D#\JJ)	.	16d#\JJ)	.	16d#/JJ)	.	16d#/JJ)	.
8BB'\L	.	8B'\L	.	8B'/L	.	8B'/L	.
16F#\L	.	(16f#\L	.	(16f#/L	.	(16f#/L	.
16D#\JJ	.	16d#\JJ)	.	16d#/JJ)	.	16d#/JJ)	.
=24	=24	=24	=24	=24	=24	=24	=24
8BB'\L	.	8B'\L	.	8B'/L	.	8B'/L	.
16G\L	.	(16g\L	.	(16g/L	.	(16g/L	.
16E\JJ	.	16e\JJ)	.	16e/JJ)	.	16e/JJ)	.
8BB'\L	.	8B'\L	.	8B'/L	.	8B'/L	.
(16G\L	.	(16g\L	.	(16g/L	.	(16g/L	.
16E\JJ)	.	16e\JJ)	.	16e/JJ)	.	16e/JJ)	.
8BB'\L	.	8B'\L	.	8B'/L	.	8B'/L	.
(16G\L	.	(16g\L	.	(16g/L	.	(16g/L	.
16E\JJ)	.	16e\JJ)	.	16e/JJ)	.	16e/JJ)	.
=25	=25	=25	=25	=25	=25	=25	=25
8BB'/L	.	8B'\L	.	8B/	.	8B/	.
8C#'/	.	8e'\	.	4g/	.	4gg\	.
8D'/	.	8fn'\	.	.	.	.	.
8C#'/	.	8e'\	.	4g/	.	4gg\	.
8D'/	.	8f'\	.	.	.	.	.
8Cn'/J	.	8e'\J	.	[8g/	.	[8gg\	.
=26	=26	=26	=26	=26	=26	=26	=26
8BB/L	.	8dn/L	.	8g/]	.	8gg\]	.
8AA/	.	8c/	.	4g/	.	4gg\	.
8GG/	.	8B/	.	.	.	.	.
8FFn/	.	8A/	.	4g/	.	4gg\	.
8EE/	.	8G/	.	.	.	.	.
8DD/J	.	8Fn/J	.	(16g/LL	.	(16gg\LL	.
.	.	.	.	16e/JJ	.	16ee\JJ	.
=27	=27	=27	=27	=27	=27	=27	=27
8CC'/L	ff	8E'/L	ff	4cc\)	ff	4ccc\)	ff
(16CC/L	.	(16C/L	.	.	.	.	.
16EE/JJ	.	16E/JJ	.	.	.	.	.
4GG'/)	.	4G'/)	.	4r	.	4r	.
4r	.	4r	.	8g'/L	.	8gg'\L	.
.	.	.	.	(16g/L	.	(16gg\L	.
.	.	.	.	16e/JJ	.	16ee\JJ	.
=28	=28	=28	=28	=28	=28	=28	=28
8r	.	8r	.	4c/)	.	4cc\)	.
(16CC/LL	.	(16C/LL	.	.	.	.	.
16EE/JJ	.	16E/JJ	.	.	.	.	.
4AA'/)	.	4A'/)	.	4r	.	4r	.
4r	.	4r	.	8e'/L	.	8ee'\L	.
.	.	.	.	(16e/L	.	16ee\L	.
.	.	.	.	16c/JJ)	.	16cc\JJ	.
=29	=29	=29	=29	=29	=29	=29	=29
8DD'/L	p	8D'/L	p	8B/L	.	8b'\L	p
(16GG/L	.	(16G/L	.	8g/	.	(16cc#\L	.
16BB/JJ)	.	16B/JJ)	.	.	.	16dd\JJ)	.
4D/	.	4d\	.	8B/	.	8b'\L	.
.	.	.	.	8g/	.	(16cc#\L	.
.	.	.	.	.	.	16dd\JJ)	.
4D/	.	4d\	.	8c/	.	8a'\L	.
.	.	.	.	8f#/J	.	(16cc#\L	.
.	.	.	.	.	.	16dd\JJ)	.
=30	=30	=30	=30	=30	=30	=30	=30
4GG/	.	4d\	.	8B'/L	.	4g/	.
.	.	.	.	8c#'/J	.	.	.
4r	.	8r	.	[2d/	.	8r	.
.	.	8A#/L	.	.	.	8f#'/L	.
8r	.	8B/	.	.	.	8g'/	.
8D'/	.	8B/J	.	.	.	8g#'/J	.
=31	=31	=31	=31	=31	=31	=31	=31
4FF#'/	.	4c/	.	8d/L]	.	4a/	.
.	.	.	.	8c#'/J	.	.	.
4r	.	8r	.	[2d/	.	8r	.
.	.	8B/L	.	.	.	8g#'/L	.
8r	.	8c/	.	.	.	8a'/	.
8D'/	.	8c/J	.	.	.	8a#'/J	.
=32	=32	=32	=32	=32	=32	=32	=32
4GG'/	.	4B/	.	8d/L]	.	4b\	.
.	.	.	.	8f#'/J	.	.	.
4r	.	8r	.	[2g/	.	8r	.
.	.	8A#\L	.	.	.	8cc#'\L	.
8r	.	8B\	.	.	.	8dd'\	.
8BB/	.	8fn\J	.	.	.	8dd#'\J	.
=33	=33	=33	=33	=33	=33	=33	=33
8C/L	.	8e\L	.	8g/L]	.	8ee\L	.
8C#/	.	8e\	.	8a/	.	8gg\	.
8D/	.	8d\	.	8b/	.	8gg\	.
8E/	.	8c\	.	8cc/	.	8gg\	.
8Cn/	.	8e\	.	8g/	.	8a'\	.
8D/J	.	8c\J	.	8f#/J	.	8dd'\J	.
=34	=34	=34	=34	=34	=34	=34	=34
4G\	.	4B/	.	4g/	.	8g'\L	.
.	.	.	.	.	.	8cc#'\J	.
8r	.	4r	.	8r	.	[2dd\	.
8FF#'/L	.	.	.	8a#'/L	.	.	.
8GG'/	.	8r	.	8b'/	.	.	.
8GG#'/J	.	8d'\	.	8b'/J	.	.	.
=35	=35	=35	=35	=35	=35	=35	=35
4AA/	.	4F#'/	.	4cc\	.	8dd\L]	.
.	.	.	.	.	.	8cc#'\J	.
8r	.	4r	.	8r	.	[2dd\	.
8GG#/L	.	.	.	8b\L	.	.	.
8AA/	.	8r	.	8cc\	.	.	.
8AA#/J	.	8d'\	.	8cc#\J	.	.	.
=36	=36	=36	=36	=36	=36	=36	=36
4BB/	.	4G'/	.	4dd\	.	8dd\L]	.
.	.	.	.	.	.	8ff#'\J	.
8r	.	8r	.	8r	.	[2gg\	.
8BB/L	.	8G/L	.	8dd#\L	.	.	.
8C/	.	8G/	.	8ee\	.	.	.
8C#/J	.	8e/J	.	8a\J	.	.	.
=37	=37	=37	=37	=37	=37	=37	=37
8D/L	.	8d\L	.	8b/L	.	8gg\L]	.
8D#/	.	8f#\	.	8a/	.	8ccc'\	.
8E/	.	8g\	.	8g/	.	8bb'\	.
8Cn/	.	8g\	.	8a/	.	8eee'\	.
8Dn/	.	8g\	.	8b/	.	8ddd'\	.
8DD/J	.	8a\J	.	8cc/J	.	8ff#'\J	.
=38	=38	=38	=38	=38	=38	=38	=38
8GG'/L	p	4g\	p	4b\	p	4gg\	p
8FF#'/	.	.	.	.	.	.	.
8GG'/	.	8d'\L	.	4r	.	4r	.
8FF#'/	.	(16d\L	.	.	.	.	.
.	.	16B\JJ	.	.	.	.	.
8GG'/	.	[4g\	.	4r	.	4r	.
8BB'/J	.	.	.	.	.	.	.
=39	=39	=39	=39	=39	=39	=39	=39
8D\L	.	4g\]	.	4r	.	2.r	.
8C#\	.	.	.	.	.	.	.
8D\	.	4f#\)	.	8a'/L	.	.	.
8C#\	.	.	.	(16a/L	.	.	.
.	.	.	.	16d/JJ	.	.	.
8D\	.	4r	.	[4cc\	.	.	.
8F#\J	.	.	.	.	.	.	.
=40	=40	=40	=40	=40	=40	=40	=40
8G\L	.	2.r	.	4cc\]	.	4r	.
8F#\	.	.	.	.	.	.	.
8G\	.	.	.	4b\)	.	8ddd'\L	.
8F#\	.	.	.	.	.	(16ddd\L	.
.	.	.	.	.	.	16bb\JJ	.
8G\	.	.	.	4r	.	[4ggg\	.
8B\J	.	.	.	.	.	.	.
=41	=41	=41	=41	=41	=41	=41	=41
8d\L	.	4r	.	4r	.	4ggg\]	.
8c#\	.	.	.	.	.	.	.
8d\	.	(8a'\L	.	4r	.	4fff#\)	.
8c#\	.	16a\L	.	.	.	.	.
.	.	16f#\JJ	.	.	.	.	.
8d\	.	(4cc\)	.	8a'/L	.	(4fff#\	.
8D\J	.	.	.	(16a/L	.	.	.
.	.	.	.	16d/JJ)	.	.	.
=42	=42	=42	=42	=42	=42	=42	=42
4G\	f	4b\)	f	4g/	f	8ggg'\L)	f
.	.	.	.	.	.	(16ddd\L	.
.	.	.	.	.	.	16bb\JJ	.
4r	.	4r	.	4r	.	8gg'\L)	.
.	.	.	.	.	.	16dd\L	.
.	.	.	.	.	.	16b\JJ	.
8G'\L	.	8g'\L	.	8g'/L	.	8g'/L	.
(16D\L	.	(16d\L	.	(16d/L	.	(16d/L	.
16BB\JJ	.	16B\JJ	.	16B/JJ	.	16B/JJ	.
=43	=43	=43	=43	=43	=43	=43	=43
4GG/)	.	4G/)	.	4G/)	.	4G/)	.
4r	.	4r	.	4r	.	4r	.
=:|!	=:|!	=:|!	=:|!	=:|!	=:|!	=:|!	=:|!
*>C	*>C	*>C	*>C	*>C	*>C	*>C	*>C
*k[]	*k[]	*k[]	*k[]	*k[]	*k[]	*k[]	*k[]
*M3/4	*M3/4	*M3/4	*M3/4	*M3/4	*M3/4	*M3/4	*M3/4
4r	.	4r	.	4r	.	4G/	.
=44	=44	=44	=44	=44	=44	=44	=44
2.C/	.	2.E/	.	2.G/	.	2.c/	.
=45	=45	=45	=45	=45	=45	=45	=45
4BB'/	.	4F'/	.	4G'/	.	4d'/	.
4BB'/	.	4F'/	.	4G'/	.	4d'/	.
4BB'/	.	4F'/	.	4G'/	.	(8d/L	.
.	.	.	.	.	.	16c/L	.
.	.	.	.	.	.	16d/JJ	.
=46	=46	=46	=46	=46	=46	=46	=46
4BB-/	.	4C/	.	4G/	.	4e'/)	.
4BB-/	.	4c/	.	4G/	.	4e'/	.
4BB-/	.	4c/	.	4G/	.	(8e/L	.
.	.	.	.	.	.	16d/L	.
.	.	.	.	.	.	16e/JJ	.
=47	=47	=47	=47	=47	=47	=47	=47
4AA/	.	4c/	.	4A/	.	4f/)	.
4r	.	4r	.	4r	.	4r	.
4r	.	4r	.	4r	.	4r	.
=48	=48	=48	=48	=48	=48	=48	=48
2.AA-/	.	2.C/	.	2.c/	.	2.f#/	.
=49	=49	=49	=49	=49	=49	=49	=49
4GG/	.	4D/	.	4B/	.	4g/	.
4GG/	.	4D/	.	4B/	.	(4g/	.
4GG/	.	4D/	.	4B/	.	8g/L	.
.	.	.	.	.	.	16f#/L	.
.	.	.	.	.	.	16g/JJ)	.
=50	=50	=50	=50	=50	=50	=50	=50
4DD/	.	4F#/	.	4c/	.	4a/	.
4DD/	.	4F#/	.	4c/	.	4a/	.
4DD/	.	4F#/	.	4c/	.	(8.a/L	.
.	.	.	.	.	.	16b/Jk)	.
=51	=51	=51	=51	=51	=51	=51	=51
4GG/	.	4G/	.	4B/	.	4g/	.
4r	.	4r	.	4r	.	4r	.
=:|!|:	=:|!|:	=:|!|:	=:|!|:	=:|!|:	=:|!|:	=:|!|:	=:|!|:
*>D	*>D	*>D	*>D	*>D	*>D	*>D	*>D
4r	.	4r	.	4r	.	(4g/	.
=52	=52	=52	=52	=52	=52	=52	=52
2.r	.	2.r	.	2.r	.	4gg'\)	.
.	.	.	.	.	.	4gg'\	.
.	.	.	.	.	.	(8gg\L	.
.	.	.	.	.	.	16ff#\L	.
.	.	.	.	.	.	16gg\JJ)	.
=53	=53	=53	=53	=53	=53	=53	=53
2.G\	p	(4d\	p	(4ff\	p	2.bb\	.
.	.	4g\	.	4dd\	.	.	.
.	.	4f\)	.	[4gg\)	.	.	.
=54	=54	=54	=54	=54	=54	=54	=54
8c\	.	8e\	.	8gg\]	.	(12ccc\L	.
.	.	.	.	.	.	12eee\)	.
8r	.	8r	.	8r	.	.	.
.	.	.	.	.	.	12ddd'\J	.
8c\	.	8e\	.	8g/	.	12ccc'\L	.
.	.	.	.	.	.	12bb'\	.
8r	.	8r	.	8r	.	.	.
.	.	.	.	.	.	12aa'\J	.
8e\	.	8g\	.	8cc\	.	12gg'\L	.
.	.	.	.	.	.	12ffn'\	.
8r	.	8r	.	8r	.	.	.
.	.	.	.	.	.	12ee'\J	.
=55	=55	=55	=55	=55	=55	=55	=55
4g\	.	4g\	.	4b\	.	12dd'\L	.
.	.	.	.	.	.	(12gg\	.
.	.	.	.	.	.	12ff#\J)	.
4r	.	4r	.	4r	.	12gg'\L	.
.	.	.	.	.	.	12dd'\	.
.	.	.	.	.	.	12b'\J	.
4r	.	4r	.	4r	.	12g'/L	.
.	.	.	.	.	.	12d'/	.
.	.	.	.	.	.	12B'/J	.
=56	=56	=56	=56	=56	=56	=56	=56
4GG'/	.	4G'/	.	4G'/	.	4G'/	.
4GG'/	.	4G'/	.	4G'/	.	4G'/	.
4GG'/	.	4G'/	.	4G'/	.	4G'/	.
=57	=57	=57	=57	=57	=57	=57	=57
4AA-/	.	4A-/	>	(4A-/	.	2fff\	>
4DD/	.	4D/	.	4f/	.	.	.
(4FF/	.	(4F/	.	[4G/) 4d/	.	4bb\	.
=58	=58	=58	=58	=58	=58	=58	=58
8EE/)	p	8E/)	p	8G/] 8g/	.	(12ccc\L	p
.	.	.	.	.	.	12eee\)	.
8r	.	8r	.	8r	.	.	.
.	.	.	.	.	.	12ddd'\J	.
8CC/	.	8e\	.	8G/ 8g/	.	12ccc'\L	.
.	.	.	.	.	.	12bb'\	.
8r	.	8r	.	8r	.	.	.
.	.	.	.	.	.	12aa'\J	.
8EE/	.	8c\	.	8G/ 8e/	.	12gg'\L	.
.	.	.	.	.	.	12ff'\	.
8r	.	8r	.	8r	.	.	.
.	.	.	.	.	.	12ee'\J	.
=59	=59	=59	=59	=59	=59	=59	=59
4GG'/	.	4B'/	.	4G'/ 4d'/	.	12dd'\L	.
.	.	.	.	.	.	(12gg\	.
.	.	.	.	.	.	12ff#\J)	.
4r	.	4r	.	4r	.	12gg'\L	.
.	.	.	.	.	.	12aa'\	.
.	.	.	.	.	.	12bb'\J	.
(4C/	.	(4c/	.	[4G/ (4e/	.	12ccc\L	.
.	.	.	.	.	.	12gg\	.
.	.	.	.	.	.	12ee\J	.
=60	=60	=60	=60	=60	=60	=60	=60
4GG'/)	.	4B'/)	.	4G'/] 4d'/)	.	12dd'\L	.
.	.	.	.	.	.	(12gg\	.
.	.	.	.	.	.	12ff#\J)	.
4r	.	4r	.	4r	.	12gg'\L	.
.	.	.	.	.	.	12aa'\	.
.	.	.	.	.	.	12bb'\J	.
(4C/	.	(4c/	.	[4G/ (4e/	.	12ccc\L	.
.	.	.	.	.	.	12gg\	.
.	.	.	.	.	.	12ee\J	.
=61	=61	=61	=61	=61	=61	=61	=61
4GG'/)	.	4B'/)	.	4G'/] 4d'/)	.	12dd'\L	.
.	.	.	.	.	.	(12gg\	.
.	.	.	.	.	.	12ff#\J)	.
4r	.	4r	.	4r	.	12gg'\L	.
.	.	.	.	.	.	12dd'\	.
.	.	.	.	.	.	12b'\J	.
4r	.	4r	.	4r	.	12g/L	.
.	.	.	.	.	.	12d/	.
.	.	.	.	.	.	12B/J	.
=62	=62	=62	=62	=62	=62	=62	=62
2.r	.	2.r	.	2.r	.	12G/L	.
.	.	.	.	.	.	12B/	.
.	.	.	.	.	.	12d/J	.
.	.	.	.	.	.	12g/L	.
.	.	.	.	.	.	12b/	.
.	.	.	.	.	.	12dd/J	.
.	.	.	.	.	.	12ffn\L	.
.	.	.	.	.	.	12dd\	.
.	.	.	.	.	.	12b\J	.
=63	=63	=63	=63	=63	=63	=63	=63
4C/	pp	(8c/L	pp	12e'/L	pp	2.cc\	pp
.	.	.	.	(12cc/	.	.	.
.	.	8G/	.	.	.	.	.
.	.	.	.	12b/J)	.	.	.
4r	.	8c/	.	12cc'/L	.	.	.
.	.	.	.	12g'/	.	.	.
.	.	8G/	.	.	.	.	.
.	.	.	.	12f'/J	.	.	.
4r	.	8c/	.	12e'/L	.	.	.
.	.	.	.	12d'/	.	.	.
.	.	8G/J)	.	.	.	.	.
.	.	.	.	12c'/J	.	.	.
=64	=64	=64	=64	=64	=64	=64	=64
12GG/L	.	(8B/L	.	4B/	.	4dd\	.
(12G/	.	.	.	.	.	.	.
.	.	8G/	.	.	.	.	.
12F#/J)	.	.	.	.	.	.	.
12G'\L	.	8B/	.	4r	.	4dd\	.
12D'\	.	.	.	.	.	.	.
.	.	8G/	.	.	.	.	.
12C'\J	.	.	.	.	.	.	.
12BB'/L	.	8B/	.	4r	.	(8dd\L	.
12AA'/	.	.	.	.	.	.	.
.	.	8G/J)	.	.	.	16cc\L	.
12GG'/J	.	.	.	.	.	.	.
.	.	.	.	.	.	16dd\JJ)	.
=65	=65	=65	=65	=65	=65	=65	=65
4C/	.	(8c/L	.	12B-/L	.	4ee\	.
.	.	.	.	(12b-/	.	.	.
.	.	8G/	.	.	.	.	.
.	.	.	.	12a/J)	.	.	.
4r	.	(8c/)	.	12b-'/L	.	4ee\	.
.	.	.	.	12g'/	.	.	.
.	.	8G/	.	.	.	.	.
.	.	.	.	12e'/J	.	.	.
4r	.	8c/	.	12c'/L	.	(8ee\L	.
.	.	.	.	12d'/	.	.	.
.	.	8G/J)	.	.	.	16dd\L	.
.	.	.	.	12B-'/J	.	.	.
.	.	.	.	.	.	16ee\JJ)	.
=66	=66	=66	=66	=66	=66	=66	=66
12FF'/L	.	(8c/L	.	4A/	.	4ff\	.
(12F/	.	.	.	.	.	.	.
.	.	8A/	.	.	.	.	.
12G/J)	.	.	.	.	.	.	.
12A'\L	.	8c/	.	4r	.	4r	.
12G'\	.	.	.	.	.	.	.
.	.	8A/	.	.	.	.	.
12F'\J	.	.	.	.	.	.	.
12E\L	.	8c/	.	4r	.	4r	.
12D'\	.	.	.	.	.	.	.
.	.	8A/J)	.	.	.	.	.
12C'\J	.	.	.	.	.	.	.
=67	=67	=67	=67	=67	=67	=67	=67
4BB/	p	(8d/L	p	12d/L	p	4ff\	p
.	.	.	.	(12dd/	.	.	.
.	.	8G/	.	.	.	.	.
.	.	.	.	12cc#/J)	.	.	.
4r	.	8d/	.	12dd'\L	.	4ff\	.
.	.	.	.	12ccn'\	.	.	.
.	.	8G/	.	.	.	.	.
.	.	.	.	12bn'\J	.	.	.
4r	.	8d/	.	12a'/L	.	(8ff\L	.
.	.	.	.	12g'/	.	.	.
.	.	8G/J)	.	.	.	16ee\L	.
.	.	.	.	12f'/J	.	.	.
.	.	.	.	.	.	16ff\JJ)	.
=68	=68	=68	=68	=68	=68	=68	=68
12C'\L	.	(8c/L	.	4e/	.	4ee\	.
(12c\	.	.	.	.	.	.	.
.	.	8G/	.	.	.	.	.
12B\J	.	.	.	.	.	.	.
12c'\L)	.	8c/	.	4r	.	4r	.
12G'\	.	.	.	.	.	.	.
.	.	8G/	.	.	.	.	.
12F'\J	.	.	.	.	.	.	.
12E'\L	.	8c/	.	4r	.	4r	.
12D'\	.	.	.	.	.	.	.
.	.	8G/J)	.	.	.	.	.
12C'\J	.	.	.	.	.	.	.
=69	=69	=69	=69	=69	=69	=69	=69
4GG/	.	(8B/L	.	12G/L	.	4dd\	.
.	.	.	.	(12f/	.	.	.
.	.	8G/	.	.	.	.	.
.	.	.	.	12e/J)	.	.	.
4r	.	8B/	.	12f'/L	.	4dd\	.
.	.	.	.	12d'/	.	.	.
.	.	8G/	.	.	.	.	.
.	.	.	.	12B'/J	.	.	.
4r	.	8F/	.	12G'/L	.	(8dd\L	.
.	.	.	.	12A'/	.	.	.
.	.	8G/J)	.	.	.	16cc\L	.
.	.	.	.	12B'/J	.	.	.
.	.	.	.	.	.	16dd\JJ)	.
=70	=70	=70	=70	=70	=70	=70	=70
12CC'/L	.	4E/	.	4c/	.	4cc\	.
12EE'/	.	.	.	.	.	.	.
12GG'/J	.	.	.	.	.	.	.
12C\L	.	4r	.	4r	.	4r	.
12E\	.	.	.	.	.	.	.
12G'\J	.	.	.	.	.	.	.
12c'\L	.	4r	.	4r	.	4r	.
12d'\	.	.	.	.	.	.	.
12e'\J	.	.	.	.	.	.	.
=71	=71	=71	=71	=71	=71	=71	=71
4f\	pp	4d\	pp	2.r	.	12gg'\L	pp
.	.	.	.	.	.	12bb'\	.
.	.	.	.	.	.	12aa'\J	.
4f\	.	4d\	.	.	.	12gg'\L	.
.	.	.	.	.	.	12bb'\	.
.	.	.	.	.	.	12aa'\J	.
(8f\L	.	(8d\L	.	.	.	12gg'\L	.
.	.	.	.	.	.	12aa'\	.
16e\L	.	16c\L	.	.	.	.	.
.	.	.	.	.	.	12bb'\J	.
16f\JJ)	.	16d\JJ)	.	.	.	.	.
=72	=72	=72	=72	=72	=72	=72	=72
4e\	.	4c\	.	4gg\	pp	12ccc\L	.
.	.	.	.	.	.	12eee\	.
.	.	.	.	.	.	12ddd\J	.
4r	.	4r	.	4gg\	.	12ccc\L	.
.	.	.	.	.	.	12bb\	.
.	.	.	.	.	.	12aa\J	.
4r	.	4r	.	(8gg\L	.	12gg\L	.
.	.	.	.	.	.	12ff\	.
.	.	.	.	16ff#\L	.	.	.
.	.	.	.	.	.	12ee\J	.
.	.	.	.	16gg\JJ)	.	.	.
=73	=73	=73	=73	=73	=73	=73	=73
4d\	.	4G/	.	4gg\	.	12dd\L	.
.	.	.	.	.	.	12ee\	.
.	.	.	.	.	.	12ff\J	.
4d\	.	4G/	.	4r	.	12b\L	.
.	.	.	.	.	.	12cc\	.
.	.	.	.	.	.	12dd\J	.
(8d\L	.	4G/	.	4r	.	12g/L	.
.	.	.	.	.	.	12a/	.
16c\L	.	.	.	.	.	.	.
.	.	.	.	.	.	12b/J	.
16d\JJ)	.	.	.	.	.	.	.
=74	=74	=74	=74	=74	=74	=74	=74
4c\	.	4C/	.	4r	.	(12cc\L	.
.	.	.	.	.	.	12dd\	.
.	.	.	.	.	.	12dd#\J	.
4r	.	4r	.	(8cc\L	.	12ee\L	.
.	.	.	.	.	.	12ff\	.
.	.	.	.	16b\L	.	.	.
.	.	.	.	.	.	12ff\J	.
.	.	.	.	16cc\JJ)	.	.	.
(4F#\	.	4c\ (4d\	.	4r	.	12gg\L	.
.	.	.	.	.	.	12gg#\	.
.	.	.	.	.	.	12aa\J)	.
=75	=75	=75	=75	=75	=75	=75	=75
4G\)	.	4c\ 4e\)	.	4r	.	(12ggn\L	.
.	.	.	.	.	.	12ffn\	.
.	.	.	.	.	.	12ee\J	.
4r	.	4r	.	(8gg\L	.	12ee-\L	.
.	.	.	.	.	.	12dd\	.
.	.	.	.	16ff#\L	.	.	.
.	.	.	.	.	.	12cc#\J	.
.	.	.	.	16gg\JJ)	.	.	.
(4GG/	.	(4f\	.	4r	.	12dd\L	.
.	.	.	.	.	.	12ff\	.
.	.	.	.	.	.	12b\J)	.
=76	=76	=76	=76	=76	=76	=76	=76
4C/)	.	4e\)	.	4r	.	12cc/L	.
.	.	.	.	.	.	12b/	.
.	.	.	.	.	.	(12a/J	.
4r	.	4r	.	(8ccc\L	.	12g/L	.
.	.	.	.	.	.	12f#/	.
.	.	.	.	16bb\L	.	.	.
.	.	.	.	.	.	12fn/J	.
.	.	.	.	16ccc\JJ)	.	.	.
(4FF#/	.	(4c\	.	4r	.	12e/L	.
.	.	.	.	.	.	12e-/	.
.	.	.	.	.	.	12d/J)	.
=77	=77	=77	=77	=77	=77	=77	=77
4GG/)	.	4e\)	.	4r	.	(12g/L	.
.	.	.	.	.	.	12f#/	.
.	.	.	.	.	.	12a/J)	.
4r	.	4r	.	(8gg\L	.	12g'/L	.
.	.	.	.	.	.	12e'/	.
.	.	.	.	16ff#\L	.	.	.
.	.	.	.	.	.	12c'/J	.
.	.	.	.	16gg\JJ)	.	.	.
(4GG/	.	[4G/	.	(4fn/	.	12G/L	.
.	.	.	.	.	.	12A/	.
.	.	.	.	.	.	12B/J	.
=78	=78	=78	=78	=78	=78	=78	=78
4C/)	p	4G/]	p	4e/)	p	12c/L	p
.	.	.	.	.	.	12e/	.
.	.	.	.	.	.	12g/J	.
4CC/	.	4E/	.	4G/	.	12cc\L	.
.	.	.	.	.	.	12ee\	.
.	.	.	.	.	.	12gg\J	.
4CC/	.	4E/	.	4G/	.	12ccc\L	.
.	.	.	.	.	.	12eee\	.
.	.	.	.	.	.	12ggg\J	.
=79	=79	=79	=79	=79	=79	=79	=79
*>D1	*>D1	*>D1	*>D1	*>D1	*>D1	*>D1	*>D1
4CC/	.	4E/	.	4G/	.	4cccc\	.
4r	.	4r	.	4r	.	4r	.
=80:|!	=80:|!	=80:|!	=80:|!	=80:|!	=80:|!	=80:|!	=80:|!
*>D2	*>D2	*>D2	*>D2	*>D2	*>D2	*>D2	*>D2
4CC/	.	4E/	.	4G/	.	4cccc'\	.
4r	.	4r	.	4r	.	4r	.
4r	.	4r	.	8g'/L	pp	4r	.
.	.	.	.	(16g/L	.	.	.
.	.	.	.	16e/JJ	.	.	.
=81	=81	=81	=81	=81	=81	=81	=81
*>E	*>E	*>E	*>E	*>E	*>E	*>E	*>E
(2.C/	pp	2.C/	pp	4cc'\)	.	8r	.
.	.	.	.	.	.	(16ee\LL	pp
.	.	.	.	.	.	16gg\JJ	.
.	.	.	.	4r	.	8ccc'\)	.
.	.	.	.	.	.	8r	.
.	.	.	.	8g'/L	.	4r	.
.	.	.	.	(16g/L	.	.	.
.	.	.	.	16e/JJ	.	.	.
=82	=82	=82	=82	=82	=82	=82	=82
2.BB/	.	[2.C/	.	4c'/)	.	8r	.
.	.	.	.	.	.	(16gg\LL	.
.	.	.	.	.	.	16ee\JJ	.
.	.	.	.	4r	.	8cc'\)	.
.	.	.	.	.	.	8r	.
.	.	.	.	4r	.	8cc'\L	.
.	.	.	.	.	.	(16ee\L	.
.	.	.	.	.	.	16gg\JJ	.
=83	=83	=83	=83	=83	=83	=83	=83
2.AA/	.	2.C/_ (2.c/	.	2.r	.	8ccc\L)	.
.	.	.	.	.	.	(16gg\L	.
.	.	.	.	.	.	16ee\JJ	.
.	.	.	.	.	.	8cc'\L)	.
.	.	.	.	.	.	(16ee\L	.
.	.	.	.	.	.	16gg\JJ	.
.	.	.	.	.	.	8ccc'\L)	.
.	.	.	.	.	.	(16gg\L	.
.	.	.	.	.	.	16ee\JJ	.
=84	=84	=84	=84	=84	=84	=84	=84
2.GG/	.	2.C/_ 2.B/	.	4r	.	8cc\L)	.
.	.	.	.	.	.	(16ee\L	.
.	.	.	.	.	.	16gg\JJ	.
.	.	.	.	4r	.	4ccc'\)	.
.	.	.	.	8a'/L	.	4r	.
.	.	.	.	(16a/L	.	.	.
.	.	.	.	16f#/JJ	.	.	.
=85	=85	=85	=85	=85	=85	=85	=85
2.FF#/	.	2.C/_ 2.A/	.	4cc'\)	.	8r	.
.	.	.	.	.	.	(16ff#\LL	.
.	.	.	.	.	.	16aa\JJ	.
.	.	.	.	4r	.	8ccc'\)	.
.	.	.	.	.	.	8r	.
.	.	.	.	8a/L	.	4r	.
.	.	.	.	(16a/L	.	.	.
.	.	.	.	16f#/JJ	.	.	.
=86	=86	=86	=86	=86	=86	=86	=86
2.EE/)	.	2.C/] 2.G/)	.	4c'/)	.	8r	.
.	.	.	.	.	.	(16aa\LL	.
.	.	.	.	.	.	16ff#\JJ	.
.	.	.	.	4r	.	8cc'\)	.
.	.	.	.	.	.	8r	.
.	.	.	.	4r	.	(8cc'\L	.
.	.	.	.	.	.	16ff#\L	.
.	.	.	.	.	.	16aa\JJ	.
=87	=87	=87	=87	=87	=87	=87	=87
4DD/	.	4F#/	.	2.r	.	8ccc'\L)	.
.	.	.	.	.	.	(16aa\L	.
.	.	.	.	.	.	16ff#\JJ	.
4r	.	4r	.	.	.	8cc'\L)	.
.	.	.	.	.	.	(16ff#\L	.
.	.	.	.	.	.	16aa\JJ	.
4r	.	4r	.	.	.	8ccc'\L)	.
.	.	.	.	.	.	(16aa\L	.
.	.	.	.	.	.	16ff#\JJ	.
=88	=88	=88	=88	=88	=88	=88	=88
4r	.	4r	.	4r	.	8cc'\L)	.
.	.	.	.	.	.	(16ff#\L	.
.	.	.	.	.	.	16aa\JJ	.
4r	.	4r	.	4r	.	4ccc\)	.
==	==	==	==	==	==	==	==
*-	*-	*-	*-	*-	*-	*-	*-
!!!ENC: Craig Stuart Sapp
!!!END: 2006/04/06/
